X: 151059
T: Out in the Ocean
S: "Sully's Irish Music Book"
Z: B.Black (arr.)
L: 1/8
M: 6/8
R: jig
K: G
D2B BAG|BdB ABA|GED G2A|ABA AGE|
D2B BAG|BdB ABA|GED G2A|1 BGG GFE :|2\
BGG GBd||
ege edB|ege edB|d^cd def|gfe dBA|
G2A B2d|ege dBA|GED G2A|1 BGG GBd :|2\
BGG GFE||
